X: 166
T: No_89_War_Song.krn
%%abc-version 2.0
%%abcx-abcm2ps-target-version 5.9.1 (29 Sep 2008)
%%abc-creator hum2abc beta
%%abcx-conversion-date 2020/08/10 18:54:57
%%gracespace 0 6 6
%%humdrum-veritas 2159375054
%%humdrum-veritas-data 3522086538
%%linebreak <none>
%%barnumbers 0
L: 1/8
M: 2/4
%%staves {1 2}
V: 1 clef=bass
V: 2 clef=bass
K: Bb
[V:1] [K:clef=bass][M:2/4]D2DD | 
[V:2] [K:clef=bass][M:2/4](3!accent!G,, z G,, (3!accent!G,, z G,, | 
[V:1] D4 | 
[V:2] (3!accent!G,, z G,, (3!accent!G,, z G,, | 
[V:1] CCC2 | 
[V:2] z4 | 
[V:1] D2B,B, | 
[V:2] z4 | 
[V:1] B,4 | 
[V:2] z4 | 
[V:1] G,B,B,2 | 
[V:2] z4 | 
[V:1] D2B,B, | 
[V:2] z4 | 
[V:1] B,4 | 
[V:2] z4 | 
[V:1] B,G, G,F, | 
[V:2] z4 | 
[V:1] G,2G,G, | 
[V:2] z4 | 
[V:1] G,4 | 
[V:2] z4 | 
[V:1] F,F,F,2 | 
[V:2] z4 | 
[V:1] G,2D,D, | 
[V:2] z4 | 
[V:1] D,4 | 
[V:2] z4 | 
[V:1] C,C,C,2 | 
[V:2] z4 | 
[V:1] D,2B,,B,, | 
[V:2] z4 | 
[V:1] B,,4 | 
[V:2] z4 | 
[V:1] G,,G,,G,,2 | 
[V:2] z4 | 
[V:1] B,,2G,,G,, | 
[V:2] z4 | 
[V:1] B,,4 | 
[V:2] z4 | 
[V:1] G,,G,,G,,2 | 
[V:2] z4 | 
[V:1] G,,3G,, | 
[V:2] z4 | 
[V:1] G,,4- | 
[V:2] z4 | 
[V:1] G,,4 |]  
[V:2] z4 |]  


